assets/awsblockchain/original.svg

<svg height="74" viewBox="0 0 74 74" width="74" xmlns="http://www.w3.org/2000/svg"><g fill="none" fill-rule="evenodd"><path d="m5 5h64v64h-64z" fill="#ed7100"/><path d="m1 1h72v72h-72z" stroke="#879196" stroke-width="2"/><path d="m42 12h-9.676a1 1 0 0 1 -.324-.11v-3.89h-5v4h-9.676a1 1 0 0 1 -.324-.11v-3.89h-5v3.89a1 1 0 0 1 -.319.11h-9.681v-10h9.818a.5.5 0 0 1 .182.072v3.928h5v-3.928a.6.6 0 0 1 .171-.072h9.829v4h5v-3.928a.6.6 0 0 1 .171-.072h9.829zm.167-12h-9.996c-.906 0-2.171.72-2.171 1.893v2.107h-1v-2.107c0-1.044-.822-1.893-1.833-1.893h-9.996c-.906 0-2.171.72-2.171 1.893v2.107h-1v-2.107c0-1.173-1.265-1.893-2.171-1.893h-9.996c-1.011 0-1.833.849-1.833 1.893v10.25c0 1.024.819 1.857 1.827 1.857h9.854c.809 0 2.319-.638 2.319-1.857v-2.143h1v2.143c0 1.219 1.51 1.857 2.319 1.857h9.854c1.008 0 1.827-.833 1.827-1.857v-2.143h1v2.143c0 1.219 1.51 1.857 2.319 1.857h9.854c1.008 0 1.827-.833 1.827-1.857v-10.25c0-1.044-.822-1.893-1.833-1.893m-7.167 9h4v-4h-4zm-.226 2h4.452c.978 0 1.774-.796 1.774-1.774v-4.452c0-.978-.796-1.774-1.774-1.774h-4.452c-.978 0-1.774.796-1.774 1.774v4.452c0 .978.796 1.774 1.774 1.774m-14.774-2h4v-4h-4zm4.226-6h-4.452c-.978 0-1.774.796-1.774 1.774v4.452c0 .978.796 1.774 1.774 1.774h4.452c.978 0 1.774-.796 1.774-1.774v-4.452c0-.978-.796-1.774-1.774-1.774m-19.226 6h4v-4h-4zm4.226-6h-4.452c-.978 0-1.774.796-1.774 1.774v4.452c0 .978.796 1.774 1.774 1.774h4.452c.978 0 1.774-.796 1.774-1.774v-4.452c0-.978-.796-1.774-1.774-1.774" fill="#fff" transform="translate(15 30)"/></g></svg>

<svg xmlns="http://www.w3.org/2000/svg" width="74" height="74" viewBox="0 0 74 74"><title>Icon-Architecture-Category/48/Blockchain_48</title><g id="Icon-Architecture-Category/48/Blockchain_48" fill="none" fill-rule="evenodd" stroke="none" stroke-width="1"><path id="Rectangle" fill="#ed7100" d="M5 5h64v64H5z"/><path id="#879196-Border-Copy-4" stroke="#879196" stroke-width="2" d="M1 1h72v72H1z"/><g id="Icon-Category/48/Blockchain_48" fill="#fff" transform="translate(15 30)"><path id="Blockchain_Category-Icon_48_Squid--" d="M42 12h-9.676a1 1 0 0 1-.324-.11V8h-5v4h-9.676a1 1 0 0 1-.324-.11V8h-5v3.89a1 1 0 0 1-.319.11H2V2h9.818a.5.5 0 0 1 .182.072V6h5V2.072A.6.6 0 0 1 17.171 2H27v4h5V2.072A.6.6 0 0 1 32.171 2H42zm.167-12h-9.996C31.265 0 30 .72 30 1.893V4h-1V1.893C29 .849 28.178 0 27.167 0h-9.996C16.265 0 15 .72 15 1.893V4h-1V1.893C14 .72 12.735 0 11.829 0H1.833C.822 0 0 .849 0 1.893v10.25C0 13.167.819 14 1.827 14h9.854C12.49 14 14 13.362 14 12.143V10h1v2.143C15 13.362 16.51 14 17.319 14h9.854C28.181 14 29 13.167 29 12.143V10h1v2.143C30 13.362 31.51 14 32.319 14h9.854C43.181 14 44 13.167 44 12.143V1.893C44 .849 43.178 0 42.167 0M35 9h4V5h-4zm-.226 2h4.452C40.204 11 41 10.204 41 9.226V4.774C41 3.796 40.204 3 39.226 3h-4.452C33.796 3 33 3.796 33 4.774v4.452c0 .978.796 1.774 1.774 1.774M20 9h4V5h-4zm4.226-6h-4.452C18.796 3 18 3.796 18 4.774v4.452c0 .978.796 1.774 1.774 1.774h4.452C25.204 11 26 10.204 26 9.226V4.774C26 3.796 25.204 3 24.226 3M5 9h4V5H5zm4.226-6H4.774C3.796 3 3 3.796 3 4.774v4.452C3 10.204 3.796 11 4.774 11h4.452C10.204 11 11 10.204 11 9.226V4.774C11 3.796 10.204 3 9.226 3"/></g></g></svg>
